img/guarantee/icon4.svg

<svg width="57" height="57" viewBox="0 0 57 57" fill="none" xmlns="http://www.w3.org/2000/svg">
<circle cx="28.5" cy="28.5" r="28" stroke="#009CA1"/>
<path fill-rule="evenodd" clip-rule="evenodd" d="M23.4531 11.1705C22.8444 11.4047 22.3334 11.9806 21.6202 13.2361C20.6274 14.9838 20.4891 15.0916 18.8226 15.4167C17.1584 15.7414 16.4113 16.0711 15.9429 16.6875C15.4445 17.3431 15.3736 17.9892 15.5884 19.9163C15.7736 21.5772 15.7075 21.7698 14.5036 23.078C13.288 24.399 13.0016 24.9119 13 25.7706C12.9984 26.6275 13.2652 27.1092 14.5114 28.4988C15.7377 29.8663 15.7744 29.9775 15.5769 31.7329C15.4193 33.1342 15.4503 33.8915 15.6878 34.438C15.8457 34.8013 16.2834 35.285 16.6365 35.4864C16.7625 35.5582 16.6193 35.8364 15.0958 38.4798C13.9824 40.4115 13.4161 41.4666 13.4161 41.6098C13.4161 41.8774 13.72 42.1983 13.9735 42.1983C14.0753 42.1983 15.2423 41.9063 16.5668 41.5495C17.8914 41.1926 19.0003 40.928 19.0313 40.9614C19.0623 40.9949 19.3795 42.1148 19.7361 43.4503C20.2958 45.5457 20.4119 45.9018 20.5829 46.0491C20.6918 46.143 20.8625 46.2199 20.9622 46.2199C21.0618 46.2199 21.2265 46.143 21.3281 46.0491C21.4298 45.9553 22.1997 44.6806 23.0392 43.2166L24.5654 40.5548L24.9631 40.4631C25.1819 40.4126 25.7874 40.1809 26.3088 39.9483C27.5451 39.3965 28.0087 39.2386 28.3874 39.2406C28.7438 39.2425 29.3183 39.4406 30.5558 39.9884C31.0355 40.2008 31.5992 40.4129 31.8084 40.4598L32.1889 40.5452L33.7389 43.2375C34.5914 44.7183 35.3719 45.9951 35.4732 46.0749C35.8062 46.3369 36.218 46.2061 36.381 45.7866C36.4262 45.6701 36.7409 44.5334 37.0803 43.2606C37.4199 41.9878 37.7105 40.9333 37.7263 40.9175C37.742 40.9016 38.8449 41.1834 40.1771 41.5435C42.5942 42.197 42.7964 42.24 43.028 42.1512C43.203 42.0839 43.3926 41.6811 43.3428 41.4824C43.3195 41.3897 42.5476 40.0232 41.6273 38.4456C40.707 36.868 39.9639 35.572 39.9759 35.5654C40.5461 35.252 40.9318 34.81 41.1323 34.2404C41.2688 33.8528 41.2871 32.6542 41.1691 31.8409C41.1267 31.5487 41.0895 31.0294 41.0864 30.6869C41.079 29.858 41.1964 29.6336 42.2226 28.5137C43.403 27.2254 43.7421 26.6201 43.7485 25.7904C43.7548 24.9714 43.3722 24.3041 42.0867 22.8914C41.2066 21.9241 41.097 21.7001 41.099 20.8714C41.0998 20.5194 41.1364 19.9924 41.1803 19.7003C41.2242 19.4082 41.2638 18.8447 41.2681 18.4483C41.2791 17.4538 41.1286 17.0257 40.5729 16.4696C40.0518 15.9483 39.6736 15.7946 38.0639 15.4502C37.4174 15.3119 36.7616 15.1446 36.6066 15.0784C36.1577 14.8866 35.8464 14.5104 35.2236 13.4064C34.4677 12.0665 34.0414 11.5536 33.4293 11.2476C32.608 10.837 31.962 10.9186 30.386 11.6317C28.4376 12.5134 28.2672 12.5133 26.3629 11.6294C25.0118 11.0023 24.2164 10.8768 23.4531 11.1705ZM23.9162 12.3329C23.564 12.4865 23.138 13.0254 22.575 14.03C21.4983 15.951 21.157 16.1978 18.9216 16.6708C17.6291 16.9443 17.117 17.1474 16.8731 17.4833C16.6589 17.7783 16.6338 18.48 16.7886 19.8418C17.0114 21.8025 16.846 22.2818 15.3841 23.9127C14.4356 24.9708 14.1741 25.3822 14.1752 25.8135C14.1763 26.1863 14.5375 26.7685 15.2191 27.4958C16.8274 29.2121 17.0113 29.6967 16.7962 31.6514C16.649 32.9895 16.6457 33.6292 16.7841 33.9607C16.941 34.3365 17.4235 34.5829 18.432 34.8027C19.9891 35.142 20.249 35.2122 20.7076 35.4182C21.3269 35.6962 21.8947 36.3342 22.5299 37.4653C23.1549 38.5782 23.437 38.9721 23.7515 39.1705C24.1291 39.4086 24.6629 39.3312 25.6263 38.8987C27.1118 38.2314 27.5307 38.0888 28.1289 38.0465C28.8813 37.9932 29.3555 38.1209 30.7395 38.7495C32.7764 39.6748 32.9914 39.5943 34.183 37.4602C34.8111 36.3352 35.3792 35.6993 36.0083 35.4168C36.4639 35.2123 36.7256 35.1416 38.2771 34.8035C40.0672 34.4136 40.2036 34.1564 39.9166 31.7153C39.6872 29.763 39.8782 29.2395 41.4329 27.5606C42.1865 26.7469 42.5367 26.1931 42.5378 25.8135C42.5389 25.38 42.2681 24.9535 41.3215 23.8982C39.864 22.2735 39.7017 21.8018 39.9244 19.8418C40.0792 18.48 40.0541 17.7783 39.8398 17.4833C39.5942 17.1449 39.0814 16.9437 37.7534 16.6642C35.6257 16.2166 35.2036 15.9137 34.1818 14.1016C33.5581 12.9954 33.0978 12.4278 32.7248 12.3046C32.3664 12.1863 31.9498 12.2968 30.7607 12.8255C29.3568 13.4497 29.021 13.551 28.3565 13.5511C27.6955 13.5512 27.1623 13.3894 25.9467 12.82C25.2414 12.4897 24.4575 12.2205 24.2263 12.2292C24.1829 12.2309 24.0434 12.2776 23.9162 12.3329ZM26.8018 16.4412C25.5622 16.6499 24.1626 17.2161 23.0201 17.9712C22.3115 18.4395 21.0453 19.7038 20.5666 20.4212C18.1171 24.0916 18.3899 28.7541 21.2449 32.0126C23.7322 34.8513 27.6292 35.9297 31.2706 34.7867C32.5809 34.3755 34.0374 33.4754 35.0528 32.4495C38.2821 29.1864 38.7274 24.2887 36.1463 20.4212C35.6646 19.6993 34.4045 18.4471 33.6653 17.9558C31.621 16.5969 29.1354 16.0485 26.8018 16.4412ZM27.0547 17.6548C24.8941 17.9916 22.7803 19.3392 21.5351 21.1737C20.7989 22.2585 20.286 23.7019 20.1739 25.0045C19.7555 29.8697 23.5142 34.0034 28.3565 34.0034C33.1859 34.0034 36.9812 29.8479 36.539 25.0446C36.3644 23.1485 35.6195 21.5075 34.3068 20.1274C32.4154 18.1388 29.7596 17.2333 27.0547 17.6548ZM30.2475 25.0177L27.0694 28.1941L25.2228 26.3563C23.6261 24.7675 23.345 24.5186 23.1463 24.5186C22.7895 24.5186 22.5169 24.7765 22.5169 25.1139C22.5169 25.3806 22.6243 25.5021 24.6623 27.5365C26.6416 29.5123 26.8281 29.6784 27.0693 29.6784C27.313 29.6784 27.5648 29.4442 30.7635 26.2439C34.0278 22.9778 34.1961 22.796 34.1961 22.5342C34.1961 22.1902 34.0059 21.9537 33.678 21.8903C33.4287 21.8421 33.3843 21.8826 30.2475 25.0177ZM16.6166 38.2631C15.895 39.5191 15.3155 40.5577 15.3288 40.571C15.3422 40.5843 16.2396 40.3583 17.3234 40.0689C18.4071 39.7794 19.3876 39.5426 19.5023 39.5425C19.6169 39.5425 19.7771 39.6089 19.8583 39.6902C20.0255 39.8575 20.051 39.9386 20.6632 42.2552C20.9085 43.1838 21.1274 43.9422 21.1495 43.9406C21.1716 43.939 21.6549 43.1233 22.2235 42.1279L23.2574 40.3179L22.927 40.085C22.5267 39.8027 22.0448 39.1617 21.5634 38.2716C20.9963 37.2228 20.657 36.7787 20.2565 36.5614C19.9767 36.4096 18.2633 35.9696 17.9842 35.9779C17.9536 35.9789 17.3382 37.0072 16.6166 38.2631ZM37.8213 36.1623C36.2774 36.4854 36.069 36.6455 35.2129 38.167C34.6145 39.2307 34.1673 39.8319 33.7497 40.1345L33.4584 40.3457L34.4909 42.1421C35.0587 43.1302 35.5413 43.9397 35.5635 43.9411C35.5856 43.9425 35.8044 43.1838 36.0497 42.2552C36.662 39.9386 36.6874 39.8575 36.8546 39.6902C36.9358 39.6089 37.094 39.5425 37.2062 39.5425C37.3185 39.5425 38.2958 39.7826 39.3779 40.0761C40.4601 40.3696 41.3571 40.598 41.3713 40.5839C41.4151 40.5399 38.7884 36.0277 38.7083 36.0095C38.6667 36.0002 38.2676 36.0688 37.8213 36.1623Z" fill="url(#paint0_linear_3132_3811)"/>
<defs>
<linearGradient id="paint0_linear_3132_3811" x1="13" y1="11" x2="48.6192" y2="42.2497" gradientUnits="userSpaceOnUse">
<stop stop-color="#0ABD92"/>
<stop offset="1" stop-color="#009DB8"/>
</linearGradient>
</defs>
</svg>

<svg width="57" height="57" fill="none" xmlns="http://www.w3.org/2000/svg"><circle cx="28.5" cy="28.5" r="28" stroke="#009CA1"/><path fill-rule="evenodd" clip-rule="evenodd" d="M23.453 11.17c-.609.235-1.12.81-1.833 2.066-.993 1.748-1.13 1.856-2.797 2.18-1.665.325-2.412.655-2.88 1.271-.498.656-.57 1.302-.355 3.23.186 1.66.12 1.853-1.084 3.161-1.216 1.321-1.502 1.834-1.504 2.693-.002.857.265 1.338 1.511 2.728 1.227 1.367 1.263 1.479 1.066 3.234-.158 1.401-.127 2.159.11 2.705.159.363.596.847.95 1.048.125.072-.018.35-1.541 2.994-1.114 1.931-1.68 2.987-1.68 3.13 0 .267.304.588.557.588.102 0 1.27-.292 2.594-.648 1.324-.357 2.433-.622 2.464-.589.031.034.349 1.154.705 2.49.56 2.095.676 2.45.847 2.598.109.094.28.17.38.17.099 0 .264-.076.365-.17.102-.094.872-1.368 1.711-2.832l1.526-2.662.398-.092c.219-.05.824-.282 1.346-.515 1.236-.551 1.7-.71 2.078-.707.357.002.931.2 2.169.747.48.213 1.043.425 1.252.472l.38.085 1.55 2.692c.853 1.481 1.634 2.758 1.735 2.838.333.262.745.131.908-.288.045-.117.36-1.254.7-2.526.339-1.273.63-2.328.645-2.344.016-.015 1.119.266 2.451.627 2.417.653 2.62.696 2.851.607.175-.067.365-.47.315-.669-.024-.092-.795-1.459-1.716-3.036-.92-1.578-1.663-2.874-1.651-2.88.57-.314.956-.756 1.156-1.326.137-.387.155-1.586.037-2.4-.042-.291-.08-.81-.083-1.153-.007-.829.11-1.053 1.137-2.173 1.18-1.289 1.52-1.894 1.526-2.724.006-.819-.377-1.486-1.662-2.899-.88-.967-.99-1.19-.988-2.02 0-.352.037-.879.081-1.17.044-.293.084-.856.088-1.253.011-.994-.14-1.422-.695-1.978-.521-.522-.9-.675-2.51-1.02-.646-.138-1.301-.305-1.456-.372-.45-.191-.76-.568-1.383-1.672-.756-1.34-1.183-1.852-1.795-2.158-.821-.411-1.467-.33-3.043.384-1.948.881-2.119.881-4.023-.003-1.351-.627-2.147-.752-2.91-.458zm.463 1.163c-.352.153-.778.692-1.341 1.697-1.077 1.921-1.418 2.168-3.653 2.64-1.293.274-1.805.477-2.049.813-.214.295-.24.997-.084 2.359.222 1.96.057 2.44-1.405 4.07-.948 1.059-1.21 1.47-1.209 1.902.001.372.362.954 1.044 1.682 1.608 1.716 1.792 2.2 1.577 4.155-.147 1.338-.15 1.978-.012 2.31.157.376.64.622 1.648.842 1.557.339 1.817.41 2.276.615.619.278 1.187.916 1.822 2.047.625 1.113.907 1.507 1.221 1.705.378.239.912.161 1.875-.271 1.486-.668 1.905-.81 2.503-.852.752-.054 1.226.074 2.61.703 2.037.925 2.252.844 3.444-1.29.628-1.125 1.196-1.76 1.825-2.043.456-.205.718-.275 2.27-.614 1.79-.39 1.926-.647 1.639-3.088-.23-1.952-.039-2.476 1.516-4.154.754-.814 1.104-1.368 1.105-1.747 0-.434-.27-.86-1.216-1.916-1.458-1.625-1.62-2.096-1.398-4.056.155-1.362.13-2.064-.084-2.359-.246-.338-.759-.54-2.087-.819-2.127-.447-2.55-.75-3.571-2.562-.624-1.107-1.084-1.674-1.457-1.797-.359-.119-.775-.008-1.964.52-1.404.625-1.74.726-2.404.726-.662 0-1.195-.162-2.41-.731-.706-.33-1.49-.6-1.72-.59a1.402 1.402 0 00-.31.103zm2.886 4.108c-1.24.209-2.64.775-3.782 1.53-.709.468-1.975 1.733-2.453 2.45-2.45 3.67-2.177 8.333.678 11.592 2.487 2.838 6.384 3.917 10.026 2.774 1.31-.411 2.766-1.312 3.782-2.337 3.23-3.264 3.674-8.161 1.093-12.029-.481-.722-1.742-1.974-2.48-2.465-2.045-1.36-4.53-1.907-6.864-1.515zm.253 1.214c-2.16.337-4.275 1.684-5.52 3.519a8.459 8.459 0 00-1.361 3.83c-.418 4.866 3.34 9 8.183 9 4.829 0 8.624-4.156 8.182-8.96-.175-1.896-.92-3.537-2.232-4.917-1.892-1.988-4.547-2.894-7.252-2.472zm3.192 7.363l-3.178 3.176-1.846-1.838c-1.597-1.589-1.878-1.837-2.077-1.837-.357 0-.63.258-.63.595 0 .267.108.388 2.146 2.422 1.98 1.976 2.166 2.142 2.407 2.142.244 0 .496-.234 3.695-3.434 3.264-3.266 3.432-3.448 3.432-3.71 0-.344-.19-.58-.518-.644-.25-.048-.294-.007-3.43 3.128zm-13.63 13.245c-.722 1.256-1.302 2.295-1.288 2.308.013.013.91-.213 1.994-.502 1.084-.29 2.065-.526 2.18-.527a.58.58 0 01.355.148c.168.168.193.249.805 2.565.245.929.464 1.687.486 1.686.023-.002.506-.818 1.075-1.813l1.033-1.81-.33-.233c-.4-.282-.882-.923-1.364-1.813-.567-1.05-.906-1.493-1.306-1.71-.28-.152-1.994-.592-2.273-.584-.03 0-.646 1.03-1.367 2.285zm21.204-2.1c-1.544.322-1.752.483-2.608 2.004-.599 1.064-1.046 1.665-1.463 1.968l-.292.21 1.033 1.797c.568.988 1.05 1.798 1.072 1.8.023 0 .241-.758.487-1.687.612-2.316.637-2.398.805-2.565a.574.574 0 01.351-.148c.112 0 1.09.24 2.172.534 1.082.294 1.98.522 1.993.508.044-.044-2.583-4.556-2.663-4.575-.041-.009-.44.06-.887.153z" fill="url(#paint0_linear_3132_3811)"/><defs><linearGradient id="paint0_linear_3132_3811" x1="13" y1="11" x2="48.619" y2="42.25" gradientUnits="userSpaceOnUse"><stop stop-color="#0ABD92"/><stop offset="1" stop-color="#009DB8"/></linearGradient></defs></svg>
